X: 4
T:Processional, Fieldtown
M:2/2
L:1/8
A:Fieldtown
P:(AB)6
K:G
P:A
|:c|\
BABG AAA2|cB/c/Ac BGG2|B/c/d ef gdec|BGAF  G2G:|
P:B
z|g2gf fee2|a2ag fdd2|gfgf edeg|fde^c d2d=c |
BABG AAA2|cB/c/Ac BGG2|B/c/d ef gdec|BGAF  G2G|
